X: 12063
T: The Bres of Birnam
T: The Breas of Birnam
C: James Oswald
%R: air, strathspey
B: James Oswald "The Caledonian Pocket Companion" v.1 b.1 p.6 #3
Z: 2020 John Chambers <jc:trillian.mit.edu>
M: C
L: 1/8
K: G
|: "_Slow"\
B3c d2(ef) | g2(fg) Te2d2 | (B>g)(g>f) (f>e()e>d) | (ed)(cB) {B2}A4 |\
d2(ef) g3f | e2(fg) {g}f3g | a6 (gf) |
Te3d d4 ::\
A2d2 {d}^c3f | {f}e3g (f>e)d2 | (B>g)(g>f) (f>e)(e>d) | (ed)(cB) {B2}A4 |\
(B>c)(d>B) G2zG | c>de>c A2zA |
d>ef>d B2zB | (e>f)(g>g) Tg2f2 |\
A2(d>c) (B>A)G2 | d2(g>f) e2(Td>c) | B2(g>f) e2(Td>c) | {B}TA3G G4 :|


